ix/repeate-one_outline.svg

<svg viewBox="0 0 24 24" fill="none" xmlns="http://www.w3.org/2000/svg" height="1em" width="1em">
  <path d="M3.91 17.1799C3.72 17.1799 3.53 17.1099 3.38 16.9599C2.01 15.5799 1.25 13.7599 1.25 11.8299C1.25 7.81994 4.5 4.55992 8.5 4.55992L14.57 4.57994L13.48 3.5399C13.18 3.2499 13.17 2.77991 13.46 2.47991C13.75 2.17991 14.22 2.16995 14.52 2.45995L16.96 4.79991C17.18 5.00991 17.25 5.33992 17.14 5.61992C17.03 5.89992 16.75 6.08995 16.44 6.08995L8.48999 6.06993C5.31999 6.06993 2.73999 8.65995 2.73999 11.84C2.73999 13.37 3.33999 14.8199 4.42999 15.9099C4.71999 16.1999 4.71999 16.6799 4.42999 16.9699C4.28999 17.1099 4.1 17.1799 3.91 17.1799Z" fill="#292D32"/>
  <path d="M9.99991 21.75C9.80991 21.75 9.62992 21.6799 9.47992 21.5399L7.03992 19.2C6.81992 18.99 6.7499 18.66 6.8599 18.38C6.9699 18.1 7.24991 17.9099 7.55991 17.9099L15.5099 17.93C18.6799 17.93 21.2599 15.3399 21.2599 12.1599C21.2599 10.6299 20.6599 9.18 19.5699 8.09C19.2799 7.8 19.2799 7.32 19.5699 7.03C19.8599 6.74 20.3399 6.74 20.6299 7.03C21.9999 8.41 22.7599 10.2299 22.7599 12.1599C22.7599 16.1699 19.5099 19.43 15.5099 19.43L9.43991 19.4099L10.5299 20.45C10.8299 20.74 10.8399 21.21 10.5499 21.51C10.3899 21.67 10.1999 21.75 9.99991 21.75Z" fill="#292D32"/>
  <path d="M12.2505 15.4201C11.8405 15.4201 11.5005 15.0801 11.5005 14.6701V11.2801L11.3105 11.4901C11.0305 11.8001 10.5605 11.8201 10.2505 11.5501C9.94049 11.2801 9.92049 10.8001 10.1905 10.4901L11.6905 8.82008C11.9005 8.59008 12.2305 8.51007 12.5205 8.62007C12.8105 8.73007 13.0005 9.01008 13.0005 9.32008V14.6701C13.0005 15.0901 12.6605 15.4201 12.2505 15.4201Z" fill="#292D32"/>
</svg>

<svg viewBox="0 0 24 24" fill="none" xmlns="http://www.w3.org/2000/svg" height="1em" width="1em">
  <path d="M3.91 17.18c-.19 0-.38-.07-.53-.22a7.244 7.244 0 0 1-2.13-5.13c0-4.01 3.25-7.27 7.25-7.27l6.07.02-1.09-1.04a.746.746 0 0 1-.02-1.06c.29-.3.76-.31 1.06-.02l2.44 2.34c.22.21.29.54.18.82-.11.28-.39.47-.7.47l-7.95-.02c-3.17 0-5.75 2.59-5.75 5.77 0 1.53.6 2.98 1.69 4.07.29.29.29.77 0 1.06-.14.14-.33.21-.52.21ZM10 21.75a.75.75 0 0 1-.52-.21L7.04 19.2a.76.76 0 0 1-.18-.82c.11-.28.39-.47.7-.47l7.95.02c3.17 0 5.75-2.59 5.75-5.77 0-1.53-.6-2.98-1.69-4.07a.754.754 0 0 1 0-1.06c.29-.29.77-.29 1.06 0a7.244 7.244 0 0 1 2.13 5.13c0 4.01-3.25 7.27-7.25 7.27l-6.07-.02 1.09 1.04c.3.29.31.76.02 1.06-.16.16-.35.24-.55.24Z" fill="#292D32"/>
  <path d="M12.25 15.42c-.41 0-.75-.34-.75-.75v-3.39l-.19.21c-.28.31-.75.33-1.06.06a.755.755 0 0 1-.06-1.06l1.5-1.67c.21-.23.54-.31.83-.2.29.11.48.39.48.7v5.35c0 .42-.34.75-.75.75Z" fill="#292D32"/>
</svg>
